build/img/icon-category/icon-category-6.svg

<svg width="26" height="24" viewBox="0 0 26 24" fill="none" xmlns="http://www.w3.org/2000/svg">
<path d="M4.97168 13V5C4.97168 2.791 6.76919 1 8.98623 1C11.2033 1 13.0008 2.791 13.0008 5V19C13.0008 21.209 14.7983 23 17.0153 23C19.2323 23 21.0299 21.209 21.0299 19V11" stroke="#2C8ECC" stroke-width="2" stroke-miterlimit="10" stroke-linecap="square"/>
<path d="M21.03 7C22.6928 7 24.0409 5.65685 24.0409 4C24.0409 2.34315 22.6928 1 21.03 1C19.3671 1 18.019 2.34315 18.019 4C18.019 5.65685 19.3671 7 21.03 7Z" stroke="#2C8ECC" stroke-width="2" stroke-miterlimit="10" stroke-linecap="square"/>
<path d="M4.97185 23C6.63473 23 7.98276 21.6569 7.98276 20C7.98276 18.3432 6.63473 17 4.97185 17C3.30897 17 1.96094 18.3432 1.96094 20C1.96094 21.6569 3.30897 23 4.97185 23Z" stroke="#2C8ECC" stroke-width="2" stroke-miterlimit="10" stroke-linecap="square"/>
</svg>

<svg width="26" height="24" fill="none" xmlns="http://www.w3.org/2000/svg"><path d="M4.972 13V5c0-2.209 1.797-4 4.014-4a4.007 4.007 0 014.015 4v14c0 2.209 1.797 4 4.014 4a4.008 4.008 0 004.015-4v-8m0-4a3.006 3.006 0 003.01-3c0-1.657-1.347-3-3.01-3a3.006 3.006 0 00-3.011 3c0 1.657 1.348 3 3.011 3zM4.972 23a3.005 3.005 0 003.01-3c0-1.657-1.347-3-3.01-3a3.006 3.006 0 00-3.011 3c0 1.657 1.348 3 3.01 3z" stroke="#2C8ECC" stroke-width="2" stroke-miterlimit="10" stroke-linecap="square"/></svg>
